X:118
T:Pollonaisse fr{\aa}n Edshult
R:sl-polska
A:Sm{\aa}land
B:Sm{\aa}l\"andsk musiktradition 167
Z:id:hn-sp-118
M:3/4
L:1/16
K:A
cABc de=fe dcBA | cABc defg g2a2 | cABc de=fe dcBA | cABG G2A2 A,4 :|
|: e2a2 a2c'2 d'4 | e2fe edcd d2c2 | cABc de=fe dcBA |
[1 A2e2 fe^de E4 :|2 cABG G2A2 A,4 ||

